icons/tonejs-logo.svg

<?xml version="1.0" encoding="UTF-8" standalone="no"?>
<svg
   xmlns:dc="http://purl.org/dc/elements/1.1/"
   xmlns:cc="http://creativecommons.org/ns#"
   xmlns:rdf="http://www.w3.org/1999/02/22-rdf-syntax-ns#"
   xmlns:svg="http://www.w3.org/2000/svg"
   xmlns="http://www.w3.org/2000/svg"
   xmlns:sodipodi="http://sodipodi.sourceforge.net/DTD/sodipodi-0.dtd"
   xmlns:inkscape="http://www.inkscape.org/namespaces/inkscape"
   id="svg"
   version="1.1"
   width="1000"
   height="1000"
   sodipodi:docname="tonejs.svg"
   inkscape:version="0.92.3 (2405546, 2018-03-11)">
  <metadata
     id="metadata9">
    <rdf:RDF>
      <cc:Work
         rdf:about="">
        <dc:format>image/svg+xml</dc:format>
        <dc:type
           rdf:resource="http://purl.org/dc/dcmitype/StillImage" />
      </cc:Work>
    </rdf:RDF>
  </metadata>
  <defs
     id="defs7" />
  <sodipodi:namedview
     pagecolor="#ffffff"
     bordercolor="#666666"
     borderopacity="1"
     objecttolerance="10"
     gridtolerance="10"
     guidetolerance="10"
     inkscape:pageopacity="0"
     inkscape:pageshadow="2"
     inkscape:window-width="1920"
     inkscape:window-height="1010"
     id="namedview5"
     showgrid="false"
     inkscape:zoom="0.236"
     inkscape:cx="72.033898"
     inkscape:cy="483.05085"
     inkscape:window-x="1920"
     inkscape:window-y="0"
     inkscape:window-maximized="1"
     inkscape:current-layer="svg" />
  <g
     id="svgg"
     transform="scale(2.5007925)">
    <path
       id="path0"
       d="m 0,91.4 c 0,63.001 0.129,91.4 0.416,91.4 0.593,0 3.569,-1.556 4.984,-2.606 1.285,-0.954 17.463,-8.994 18.097,-8.994 0.208,0 0.712,-0.368 1.12,-0.818 0.64,-0.708 16.467,-8.782 17.213,-8.782 0.151,0 1.106,-0.588 2.122,-1.307 1.871,-1.323 16.397,-8.693 17.133,-8.693 0.22,0 1.191,-0.589 2.157,-1.31 0.967,-0.72 2.748,-1.777 3.958,-2.349 5.934,-2.804 15.033,-7.413 15.77,-7.988 1.079,-0.841 17.019,-8.753 17.635,-8.753 0.259,0 0.814,-0.381 1.233,-0.846 0.419,-0.466 4.941,-2.91 10.049,-5.432 5.108,-2.523 9.698,-4.898 10.2,-5.279 1.167,-0.886 3.089,-1.884 11.713,-6.078 2.86,-1.391 5.92,-2.976 6.8,-3.521 1.894,-1.174 9.303,-4.975 10.89,-5.587 0.611,-0.235 2.55,-1.215 4.31,-2.177 10.547,-5.766 13.312,-7.234 14.394,-7.64 2.23,-0.837 8.444,-4.163 8.977,-4.805 0.29,-0.349 0.679,-0.635 0.865,-0.635 0.186,0 3.977,-1.8 8.423,-4 8.615,-4.262 9.419,-4.519 9.71,-3.1 0.102,0.495 0.292,27.09 0.423,59.1 0.13,32.01 0.494,77.01 0.806,100 0.313,22.99 0.593,48.1 0.623,55.8 0.093,24.482 -0.249,23.347 6.08,20.175 9.385,-4.702 11.424,-5.756 13.899,-7.184 1.43,-0.826 5.851,-3.105 9.824,-5.065 3.973,-1.959 7.753,-3.935 8.4,-4.389 0.647,-0.455 5.265,-2.839 10.263,-5.299 4.998,-2.46 9.183,-4.627 9.3,-4.817 0.117,-0.189 3.048,-1.736 6.513,-3.438 9.993,-4.908 11.839,-5.863 12.849,-6.642 0.522,-0.403 4.842,-2.647 9.6,-4.987 4.758,-2.339 9.19,-4.636 9.849,-5.104 1.178,-0.835 16.785,-8.65 17.276,-8.65 0.138,0 0.864,-0.468 1.615,-1.04 1.246,-0.951 10.086,-5.487 16.542,-8.488 1.446,-0.672 2.875,-1.518 3.174,-1.879 0.568,-0.683 3.51,-2.277 5.135,-2.781 0.516,-0.16 2.735,-1.254 4.931,-2.431 2.196,-1.177 4.608,-2.343 5.361,-2.592 0.753,-0.248 2.224,-1.035 3.268,-1.748 2.37,-1.617 3.334,-2.126 12.601,-6.655 4.125,-2.016 7.6,-3.826 7.721,-4.022 0.122,-0.196 4.293,-2.361 9.271,-4.81 4.978,-2.449 9.714,-4.926 10.525,-5.503 0.811,-0.578 2.484,-1.501 3.717,-2.051 l 2.243,-1 0.011,-108.3 L 400,0 H 200 0 v 91.4 m 186.8,-3.151 c -3.41,1.675 -6.47,3.28 -6.8,3.569 -0.33,0.288 -4.466,2.451 -9.192,4.806 -4.726,2.355 -9.311,4.736 -10.189,5.29 -0.878,0.555 -5.382,2.939 -10.008,5.299 -4.626,2.359 -12.544,6.397 -17.596,8.972 -5.052,2.575 -9.642,5.002 -10.2,5.393 -0.558,0.392 -4.975,2.651 -9.815,5.021 -4.84,2.37 -9.391,4.825 -10.114,5.455 -0.723,0.63 -1.515,1.146 -1.76,1.146 -0.871,0 -16.154,7.744 -17.884,9.061 -0.966,0.737 -1.946,1.339 -2.177,1.339 -0.596,0 -15.073,7.197 -16.187,8.046 -0.507,0.387 -4.827,2.621 -9.6,4.966 -4.773,2.344 -9.218,4.663 -9.878,5.153 -0.66,0.49 -5.16,2.829 -10,5.199 -4.84,2.369 -9.16,4.623 -9.6,5.009 -0.44,0.385 -4.49,2.47 -9,4.633 -4.51,2.162 -9.198,4.621 -10.417,5.463 -1.22,0.842 -2.422,1.531 -2.672,1.531 -0.25,0 -0.737,0.283 -1.082,0.629 -0.964,0.963 -0.964,212.179 0,213.142 0.964,0.965 393.778,0.965 394.742,0 0.963,-0.962 0.963,-174.18 0,-175.142 -0.879,-0.88 -1.957,-0.786 -4.112,0.358 -1.022,0.544 -5.412,2.717 -9.754,4.831 -4.342,2.113 -8.006,4.021 -8.14,4.239 -0.135,0.218 -4.322,2.398 -9.305,4.843 -4.983,2.445 -9.613,4.86 -10.289,5.366 -0.676,0.506 -5.305,2.912 -10.288,5.346 -4.982,2.434 -9.163,4.594 -9.291,4.8 -0.127,0.207 -4.138,2.29 -8.912,4.63 -4.774,2.34 -9.181,4.609 -9.794,5.043 -0.613,0.434 -5.293,2.916 -10.4,5.516 -14.896,7.582 -28.204,14.492 -32.117,16.675 -1.997,1.115 -4.061,2.163 -4.587,2.33 -1.005,0.319 -8.747,4.398 -15.182,8 -2.09,1.17 -4.038,2.142 -4.328,2.16 -0.29,0.019 -3.08,1.409 -6.2,3.091 -3.12,1.681 -9.542,5.031 -14.272,7.445 -4.73,2.415 -10.49,5.419 -12.8,6.677 -5.421,2.951 -15.149,7.621 -15.876,7.621 -3.487,0 -3.625,-0.767 -3.684,-20.418 -0.028,-9.56 -0.142,-22.332 -0.254,-28.382 -0.522,-28.321 -0.991,-77.145 -1.24,-129.135 -0.297,-61.882 -0.134,-58.068 -2.475,-58.062 -0.589,10e-4 -3.861,1.372 -7.271,3.046 m 5.359,59.651 c 0.155,31.185 0.449,68.67 0.652,83.3 0.203,14.63 0.475,40.55 0.605,57.6 0.271,35.74 0.075,33.921 3.856,35.837 4.32,2.189 8.83,0.8 23.542,-7.249 2.302,-1.259 8.056,-4.253 12.786,-6.652 4.73,-2.399 10.85,-5.605 13.6,-7.124 2.75,-1.519 5.27,-2.781 5.6,-2.805 0.33,-0.025 2.67,-1.193 5.2,-2.597 6.992,-3.879 13.22,-7.138 15,-7.849 0.88,-0.352 3.31,-1.6 5.4,-2.775 3.949,-2.219 16.376,-8.671 32.216,-16.726 5.069,-2.577 9.749,-5.056 10.4,-5.509 0.651,-0.452 4.964,-2.673 9.584,-4.935 4.62,-2.262 8.698,-4.373 9.061,-4.691 0.364,-0.318 4.655,-2.546 9.537,-4.951 4.881,-2.404 9.433,-4.769 10.116,-5.255 0.683,-0.487 5.324,-2.898 10.313,-5.358 4.99,-2.461 9.182,-4.652 9.316,-4.869 0.216,-0.35 13.991,-7.292 14.468,-7.292 0.104,0 0.189,37.26 0.189,82.8 v 82.8 H 200 6.4 v -103 c 0,-59.366 0.15,-103 0.353,-103 0.195,0 1.5,-0.77 2.9,-1.712 1.401,-0.941 6.237,-3.486 10.747,-5.655 4.51,-2.169 8.56,-4.256 9,-4.639 0.44,-0.383 4.76,-2.637 9.6,-5.009 4.84,-2.371 9.34,-4.711 10,-5.198 0.66,-0.488 4.98,-2.734 9.6,-4.992 4.62,-2.259 8.94,-4.494 9.6,-4.969 1.044,-0.751 11.416,-5.93 15.986,-7.983 0.872,-0.392 2.222,-1.212 3,-1.823 1.357,-1.067 11.893,-6.39 16.361,-8.267 1.181,-0.496 2.578,-1.306 3.104,-1.801 0.526,-0.494 5.139,-2.998 10.253,-5.564 5.113,-2.567 13.706,-6.967 19.096,-9.778 5.39,-2.812 13.425,-6.954 17.856,-9.205 4.431,-2.252 9.14,-4.752 10.466,-5.558 1.326,-0.805 4.36,-2.392 6.744,-3.527 4.089,-1.947 7.476,-3.714 16.493,-8.602 2.113,-1.146 3.948,-2.091 4.08,-2.1 0.131,-0.01 0.365,25.497 0.52,56.682"
       inkscape:connector-curvature="0"
       style="fill:#000000;fill-rule:evenodd;stroke:none" />
  </g>
</svg>

<?xml version="1.0" encoding="UTF-8" standalone="no"?>
<!DOCTYPE svg PUBLIC "-//W3C//DTD SVG 1.1//EN" "http://www.w3.org/Graphics/SVG/1.1/DTD/svg11.dtd">
<svg width="100%" height="100%" viewBox="0 0 1000 1000" version="1.1" xmlns="http://www.w3.org/2000/svg" xmlns:xlink="http://www.w3.org/1999/xlink" xml:space="preserve" xmlns:serif="http://www.serif.com/" style="fill-rule:evenodd;clip-rule:evenodd;stroke-linejoin:round;stroke-miterlimit:2;">
    <g id="svgg" transform="matrix(2.50079,0,0,2.50079,0,0)">
        <path id="path0" d="M0,91.4C0,154.401 0.129,182.8 0.416,182.8C1.009,182.8 3.985,181.244 5.4,180.194C6.685,179.24 184.013,87.4 188.459,85.2C197.074,80.938 197.878,80.681 198.169,82.1C198.271,82.595 198.461,109.19 198.592,141.2C198.722,173.21 199.086,218.21 199.398,241.2C199.711,264.19 199.991,289.3 200.021,297C200.114,321.482 199.772,320.347 206.101,317.175C215.486,312.473 393.207,220.228 394.018,219.651C394.829,219.073 396.502,218.15 397.735,217.6L399.978,216.6L400,0L0,0L0,91.4M186.8,88.249C183.39,89.924 21.31,174.443 16.8,176.606C12.29,178.768 7.602,181.227 6.383,182.069C5.163,182.911 3.961,183.6 3.711,183.6C3.461,183.6 2.974,183.883 2.629,184.229C1.665,185.192 1.665,396.408 2.629,397.371C3.593,398.336 396.407,398.336 397.371,397.371C398.334,396.409 398.334,223.191 397.371,222.229C396.492,221.349 395.414,221.443 393.259,222.587C392.237,223.131 202.451,321.2 201.724,321.2C198.237,321.2 198.099,320.433 198.04,300.782C198.012,291.222 197.898,278.45 197.786,272.4C197.264,244.079 196.795,195.255 196.546,143.265C196.249,81.383 196.412,85.197 194.071,85.203C193.482,85.204 190.21,86.575 186.8,88.249M192.159,147.9C192.314,179.085 192.608,216.57 192.811,231.2C193.014,245.83 193.286,271.75 193.416,288.8C193.687,324.54 193.491,322.721 197.272,324.637C201.592,326.826 392.934,228 393.411,228C393.515,228 393.6,265.26 393.6,310.8L393.6,393.6L6.4,393.6L6.4,290.6C6.4,231.234 6.55,187.6 6.753,187.6C6.948,187.6 8.253,186.83 9.653,185.888C11.054,184.947 15.89,182.402 20.4,180.233C24.91,178.064 178.542,98.206 187.559,93.318C189.672,92.172 191.507,91.227 191.639,91.218C191.77,91.208 192.004,116.715 192.159,147.9"/>
    </g>
</svg>
